X: 35613
T: Sadegurer Khosid
R: barndance
M: 4/4
K: Eminor
B2|:"Em"G3F E2E2|z2GF EGFE|"B"F3E ^D2D2|"Am"^DEDA "B"B4|
"B7"^DBDF "Em"EBEG|"B7"FBFA "Em"GEGB|"A,m"A2A2 ABcA|"B7"B4 BAGF|
"Em"G3F E2E2|z2GF EGFE|"B"F3E ^D2D2|"A,m"^DEDA "B" B4|
"B7"B4 A4|G4 F4|"Em"E2E2 "B7"GFE^D|"Em"E4 zBEF:|
|:"E"GAGA G2FE|F2G2 z4|GAGA G2FE|FGE2 z4|
"E"GAGA G2FE|F2G2 z4|"Fm"F2F2 "B,7"EDCD|1 "E"E4 z4:|2 "Em"E4||
|:z4|"Em"B8|B8|B4 B4|B4 B4|
z2B2 B2B2|"A,m"A2z2 A4|"Em"GAGF E^DEF|G2z2 B4|
z2B2 B2B2|"A,m"A2z2 A4|"Gg"GDDG "Fg"G_FFE|"Em"E4:|

